modules/themify-icons/icons/notepad.svg

<?xml version="1.0" encoding="utf-8"?>
<!-- Generated by IcoMoon.io -->
<!DOCTYPE svg PUBLIC "-//W3C//DTD SVG 1.1//EN" "http://www.w3.org/Graphics/SVG/1.1/DTD/svg11.dtd">
<svg version="1.1" xmlns="http://www.w3.org/2000/svg" xmlns:xlink="http://www.w3.org/1999/xlink" width="17" height="17" viewBox="0 0 17 17">
<g>
</g>
	<path d="M1 0v17h15v-17h-15zM15 16h-13v-15h2v1.092c-0.581 0.207-1 0.757-1 1.408 0 0.827 0.673 1.5 1.5 1.5s1.5-0.673 1.5-1.5c0-0.651-0.419-1.201-1-1.408v-1.092h3v1.092c-0.581 0.207-1 0.757-1 1.408 0 0.827 0.673 1.5 1.5 1.5s1.5-0.673 1.5-1.5c0-0.651-0.419-1.201-1-1.408v-1.092h3v1.092c-0.581 0.207-1 0.757-1 1.408 0 0.827 0.673 1.5 1.5 1.5s1.5-0.673 1.5-1.5c0-0.651-0.419-1.201-1-1.408v-1.092h2v15zM5 3.5c0 0.275-0.225 0.5-0.5 0.5s-0.5-0.225-0.5-0.5 0.225-0.5 0.5-0.5 0.5 0.225 0.5 0.5zM9 3.5c0 0.275-0.225 0.5-0.5 0.5s-0.5-0.225-0.5-0.5 0.225-0.5 0.5-0.5 0.5 0.225 0.5 0.5zM13 3.5c0 0.275-0.225 0.5-0.5 0.5s-0.5-0.225-0.5-0.5 0.225-0.5 0.5-0.5 0.5 0.225 0.5 0.5z" fill="#000000" />
</svg>

<svg xmlns="http://www.w3.org/2000/svg" width="17" height="17" viewBox="0 0 17 17"><path d="M1 0v17h15V0H1zm14 16H2V1h2v1.092c-.581.207-1 .757-1 1.408C3 4.327 3.673 5 4.5 5S6 4.327 6 3.5c0-.651-.419-1.201-1-1.408V1h3v1.092c-.581.207-1 .757-1 1.408C7 4.327 7.673 5 8.5 5S10 4.327 10 3.5c0-.651-.419-1.201-1-1.408V1h3v1.092c-.581.207-1 .757-1 1.408 0 .827.673 1.5 1.5 1.5S14 4.327 14 3.5c0-.651-.419-1.201-1-1.408V1h2v15zM5 3.5c0 .275-.225.5-.5.5S4 3.775 4 3.5s.225-.5.5-.5.5.225.5.5zm4 0c0 .275-.225.5-.5.5S8 3.775 8 3.5s.225-.5.5-.5.5.225.5.5zm4 0c0 .275-.225.5-.5.5s-.5-.225-.5-.5.225-.5.5-.5.5.225.5.5z"/></svg>
